X:1
T:Title
%%score { ( 1 3 ) | ( 2 4 ) }
L:1/8
M:4/4
K:Ab
V:1 treble nm="Grand Piano"
V:3 treble 
V:2 bass 
V:4 bass 
V:1
 z4 z2[Q:1/4=104] [CE]2 | [Ec]3 [DB] [CA]3 [EG] | [DF]2 [DG]2 [CA]2 [EB]2 | [Ec]3 [Ed] [Ee]2 A>B | %4
[M:3/4] [=Ec]6 |[M:1/4] [Ec]2 |[M:4/4] [Fd]3 [Ec] [B,DB]3 [B,FA] | [B,EG]2 [A,=DF]2 [G,E]2 [Ge]2 | %8
 e3- e/E/ c2 B2 |[M:3/4] [CA]6 |[M:1/4] c>B |[M:4/4] A4 z4 | F6 z2 | %13
 [GB]->[EG-B-] [EGB]>[CEA] [B,EG]2 [A,=DF]2 | E->[G,E-] [G,E-]>[G,E-] [G,E]2 [EGe]2 | %15
 [Ac]->[EA-c-] [EAc]>[CA] [B,GB]2 [_Gc]2 | d->[Fd-] [Fd-]>[Fd-] [Fd]2 [Af]2 | %17
 [Ae]3- [Ae]/d/ c2 B2 | c6 c2 | B3 d c3 e | [Fd]2 [Af]2 [Ae]3- [Ae]/E/ | c4 B4 |[M:3/4] [CA]6 |] %23
V:2
 z4 z2 [A,,A,]2 | [A,,A,]3 [A,,A,] [A,,A,]3 [C,A,] | [D,A,]2 [B,,E,]2 [A,,E,]2 [E,G,]2 | %3
 [A,,A,]3 [A,,B,] [A,,C]2 [D,F,]2 |[M:3/4] [C,G,]6 |[M:1/4] [C,G,]2 | %6
[M:4/4] [B,,B,]3 [C,=A,] D,3 D, | E,2 B,,2 E,2 [E,B,]2 | %8
 [A,CA]3- [A,CA]/[K:bass][A,C]/ [E,A,E]2 [E,G,D]2 |[M:3/4] [A,,A,]6 |[M:1/4] [A,E]2 | %11
[M:4/4] E4 z4 | [F,A,]>F, F,>F, F,2 z z/[K:treble] c/ | E,>E, E,>A,, B,,2 B,,2 | %14
 E,>E, E,>E, E,2 z z/[K:treble] d/ | A,>A, A,>A,[K:bass] E,2 A,2 | %16
 [D,A,]>[D,A,] [D,A,]>[D,A,] [D,A,]2 [D,D]2 | [E,C]3- [E,C]/[E,B,E]/ [E,A,E]2 [E,G,E]2 | %18
 [A,E]6 [A,E]2 | [E,G,E]3 [E,B,E] [A,E]3 [A,CE] | [D,D]2 [D,D]2 [E,C]3- [E,C]/[E,C]/ | %21
 [E,A,E]4 [E,G,D]4 |[M:3/4] [A,,A,]6 |] %23
V:3
 x8 | x8 | x8 | z4 z2 F2 |[M:3/4] x6 |[M:1/4] x2 |[M:4/4] x8 | x8 | x8 |[M:3/4] x6 |[M:1/4] x2 | %11
[M:4/4] z z/ C/ C>G F2 =E2 | z z/ A,/ A,>A, A,2 [Fd]2 | B,2 z2 z4 | G,2 z2 z4 | E2 z2 z4 | %16
 F2 z2 z4 | x8 | x8 | x8 | x8 | x8 |[M:3/4] x6 |] %23
V:4
 x8 | x8 | x8 | x8 |[M:3/4] x6 |[M:1/4] x2 |[M:4/4] x8 | x8 | x7/2[K:bass] x9/2 |[M:3/4] x6 | %10
[M:1/4] x2 |[M:4/4] [A,C]>A, A,>[E,B,D] [F,A,C]2 [C,G,C]2 | C6 [B,,B,]2[K:treble] | x8 | %14
 z4 z2 E,2[K:treble] | x4[K:bass] x4 | x8 | x8 | x8 | x8 | x8 | x8 |[M:3/4] x6 |] %23

